X: 334
T:The Widow Magee
% Nottingham Music Database
S:Trad, arr Phil Rowe
M:6/8
K:G
D|"G"GAG "C"g2e|"G"dBG A2G|"Am"E2A ABc|"Am"BAG "D7"E2D|
"G"GAG "C"g2e|"G"dBG Bcd|"C"efg "G"dBd|"D7"cBA "G"G2:|
d|"C"e2e "G"d2B|"Em"g2g "Bm"f2d|"Em"gag "Bm"f2d|"A7"e3 "D7"d2d|"C"e2e "G"d2B|\
"Em"g2g "Bm"f2d|
"Em"g2g "A7"f2e|"D7"ded cBA|"G"GAG "C"g2e|"G"dBG A2G|"Am"E2A ABc|
"Am"BAG "D7"E2D|"G"GAG "C"g2e|"G"dBG Bcd|"C"efg "G"dBd|"D7"cBA "G"G2||


